images/3247350.svg

<?xml version="1.0" encoding="UTF-8"?>
<svg xmlns="http://www.w3.org/2000/svg" xmlns:xlink="http://www.w3.org/1999/xlink" width="300pt" height="300pt" viewBox="0 0 300 300" version="1.1">
<defs>
<g>
<symbol overflow="visible" id="glyph0-0">
<path style="stroke:none;" d="M 0.453125 1.59375 L 0.453125 -6.34375 L 4.953125 -6.34375 L 4.953125 1.59375 Z M 0.953125 1.09375 L 4.453125 1.09375 L 4.453125 -5.84375 L 0.953125 -5.84375 Z M 0.953125 1.09375 "/>
</symbol>
<symbol overflow="visible" id="glyph0-1">
<path style="stroke:none;" d="M 0.890625 -6.5625 L 2.078125 -6.5625 L 4.984375 -1.078125 L 4.984375 -6.5625 L 5.84375 -6.5625 L 5.84375 0 L 4.65625 0 L 1.75 -5.484375 L 1.75 0 L 0.890625 0 Z M 0.890625 -6.5625 "/>
</symbol>
<symbol overflow="visible" id="glyph0-2">
<path style="stroke:none;" d="M 0.890625 -6.5625 L 1.765625 -6.5625 L 1.765625 -3.875 L 5 -3.875 L 5 -6.5625 L 5.890625 -6.5625 L 5.890625 0 L 5 0 L 5 -3.125 L 1.765625 -3.125 L 1.765625 0 L 0.890625 0 Z M 0.890625 -6.5625 "/>
</symbol>
<symbol overflow="visible" id="glyph0-3">
<path style="stroke:none;" d="M 3.546875 -5.953125 C 2.898438 -5.953125 2.382812 -5.710938 2 -5.234375 C 1.625 -4.753906 1.4375 -4.101562 1.4375 -3.28125 C 1.4375 -2.445312 1.625 -1.789062 2 -1.3125 C 2.382812 -0.832031 2.898438 -0.59375 3.546875 -0.59375 C 4.191406 -0.59375 4.703125 -0.832031 5.078125 -1.3125 C 5.453125 -1.789062 5.640625 -2.445312 5.640625 -3.28125 C 5.640625 -4.101562 5.453125 -4.753906 5.078125 -5.234375 C 4.703125 -5.710938 4.191406 -5.953125 3.546875 -5.953125 Z M 3.546875 -6.6875 C 4.460938 -6.6875 5.195312 -6.375 5.75 -5.75 C 6.300781 -5.132812 6.578125 -4.3125 6.578125 -3.28125 C 6.578125 -2.238281 6.300781 -1.410156 5.75 -0.796875 C 5.195312 -0.179688 4.460938 0.125 3.546875 0.125 C 2.617188 0.125 1.878906 -0.179688 1.328125 -0.796875 C 0.773438 -1.410156 0.5 -2.238281 0.5 -3.28125 C 0.5 -4.3125 0.773438 -5.132812 1.328125 -5.75 C 1.878906 -6.375 2.617188 -6.6875 3.546875 -6.6875 Z M 3.546875 -6.6875 "/>
</symbol>
</g>
</defs>
<g id="surface33801">
<rect x="0" y="0" width="300" height="300" style="fill:rgb(100%,100%,100%);fill-opacity:1;stroke:none;"/>
<path style=" stroke:none;fill-rule:nonzero;fill:rgb(0%,0%,0%);fill-opacity:1;" d="M 131.960938 156.632812 L 119.886719 138.714844 L 114.484375 143.929688 Z M 131.960938 156.632812 "/>
<path style="fill:none;stroke-width:1.2;stroke-linecap:butt;stroke-linejoin:miter;stroke:rgb(0%,0%,0%);stroke-opacity:1;stroke-miterlimit:10;" d="M 131.960938 156.632812 L 126.09375 177.082031 "/>
<path style="fill:none;stroke-width:1.2;stroke-linecap:butt;stroke-linejoin:miter;stroke:rgb(0%,0%,0%);stroke-opacity:1;stroke-miterlimit:10;" d="M 131.960938 156.632812 L 152.609375 151.492188 "/>
<path style=" stroke:none;fill-rule:nonzero;fill:rgb(0%,0%,0%);fill-opacity:1;" d="M 126.09375 177.082031 L 127.589844 198.636719 L 134.875 196.824219 Z M 126.09375 177.082031 "/>
<path style="fill:none;stroke-width:1.2;stroke-linecap:butt;stroke-linejoin:miter;stroke:rgb(0%,0%,0%);stroke-opacity:1;stroke-miterlimit:10;" d="M 110.78125 191.859375 L 126.09375 177.082031 "/>
<path style="fill:none;stroke-width:1.2;stroke-linecap:butt;stroke-linejoin:miter;stroke:rgb(0%,0%,0%);stroke-opacity:1;stroke-miterlimit:10;" d="M 131.234375 197.730469 L 110.78125 191.859375 "/>
<path style=" stroke:none;fill-rule:nonzero;fill:rgb(0%,0%,0%);fill-opacity:1;" d="M 110.78125 191.859375 L 98.074219 209.332031 L 104.824219 212.628906 Z M 110.78125 191.859375 "/>
<path style="fill:none;stroke-width:1.2;stroke-linecap:butt;stroke-linejoin:miter;stroke:rgb(0%,0%,0%);stroke-opacity:1;stroke-miterlimit:10;" d="M 110.78125 191.859375 L 93.570312 179.347656 "/>
<path style=" stroke:none;fill-rule:nonzero;fill:rgb(0%,0%,0%);fill-opacity:1;" d="M 93.570312 179.347656 L 72.605469 184.566406 L 75.65625 191.425781 Z M 93.570312 179.347656 "/>
<path style="fill:none;stroke-width:1.2;stroke-linecap:butt;stroke-linejoin:miter;stroke:rgb(0%,0%,0%);stroke-opacity:1;stroke-miterlimit:10;" d="M 93.570312 179.347656 L 94.6875 168.769531 "/>
<path style="fill:none;stroke-width:1.2;stroke-linecap:butt;stroke-linejoin:miter;stroke:rgb(0%,0%,100%);stroke-opacity:1;stroke-miterlimit:10;" d="M 94.6875 168.769531 L 95.800781 158.1875 "/>
<path style="fill:none;stroke-width:1.2;stroke-linecap:butt;stroke-linejoin:miter;stroke:rgb(0%,0%,0%);stroke-opacity:1;stroke-miterlimit:10;" d="M 74.132812 187.996094 L 56.921875 175.484375 "/>
<path style="fill:none;stroke-width:1.2;stroke-linecap:butt;stroke-linejoin:miter;stroke:rgb(0%,0%,0%);stroke-opacity:1;stroke-miterlimit:10;" d="M 69.464844 190.792969 L 55.699219 180.785156 "/>
<path style="fill:none;stroke-width:1.2;stroke-linecap:butt;stroke-linejoin:miter;stroke:rgb(0%,0%,0%);stroke-opacity:1;stroke-miterlimit:10;" d="M 71.902344 209.15625 L 74.132812 187.996094 "/>
<path style="fill:none;stroke-width:1.2;stroke-linecap:butt;stroke-linejoin:miter;stroke:rgb(0%,0%,0%);stroke-opacity:1;stroke-miterlimit:10;" d="M 56.921875 175.484375 L 37.480469 184.132812 "/>
<path style="fill:none;stroke-width:1.2;stroke-linecap:butt;stroke-linejoin:miter;stroke:rgb(0%,0%,0%);stroke-opacity:1;stroke-miterlimit:10;" d="M 37.480469 184.132812 L 35.25 205.292969 "/>
<path style="fill:none;stroke-width:1.2;stroke-linecap:butt;stroke-linejoin:miter;stroke:rgb(0%,0%,0%);stroke-opacity:1;stroke-miterlimit:10;" d="M 42.234375 186.773438 L 40.453125 203.703125 "/>
<path style="fill:none;stroke-width:1.2;stroke-linecap:butt;stroke-linejoin:miter;stroke:rgb(0%,0%,0%);stroke-opacity:1;stroke-miterlimit:10;" d="M 35.25 205.292969 L 52.460938 217.804688 "/>
<path style="fill:none;stroke-width:1.2;stroke-linecap:butt;stroke-linejoin:miter;stroke:rgb(0%,0%,0%);stroke-opacity:1;stroke-miterlimit:10;" d="M 52.460938 217.804688 L 71.902344 209.15625 "/>
<path style="fill:none;stroke-width:1.2;stroke-linecap:butt;stroke-linejoin:miter;stroke:rgb(0%,0%,0%);stroke-opacity:1;stroke-miterlimit:10;" d="M 52.371094 212.367188 L 67.921875 205.445312 "/>
<path style="fill:none;stroke-width:1.2;stroke-linecap:butt;stroke-linejoin:miter;stroke:rgb(0%,0%,100%);stroke-opacity:1;stroke-miterlimit:10;" d="M 95.800781 158.1875 L 87.195312 151.929688 "/>
<path style="fill:none;stroke-width:1.2;stroke-linecap:butt;stroke-linejoin:miter;stroke:rgb(0%,0%,0%);stroke-opacity:1;stroke-miterlimit:10;" d="M 87.195312 151.929688 L 78.59375 145.675781 "/>
<path style=" stroke:none;fill-rule:nonzero;fill:rgb(100%,100%,100%);fill-opacity:1;" d="M 88.800781 152.6875 L 102.800781 152.6875 L 102.800781 163.6875 L 88.800781 163.6875 Z M 88.800781 152.6875 "/>
<g style="fill:rgb(0%,0%,100%);fill-opacity:1;">
  <use xlink:href="#glyph0-1" x="88.800781" y="161.350586"/>
  <use xlink:href="#glyph0-2" x="95.77832" y="161.350586"/>
</g>
<path style="fill:none;stroke-width:1.2;stroke-linecap:butt;stroke-linejoin:miter;stroke:rgb(0%,0%,0%);stroke-opacity:1;stroke-miterlimit:10;" d="M 77.574219 143.386719 L 67.855469 147.710938 "/>
<path style="fill:none;stroke-width:1.2;stroke-linecap:butt;stroke-linejoin:miter;stroke:rgb(100%,0%,0%);stroke-opacity:1;stroke-miterlimit:10;" d="M 67.855469 147.710938 L 58.132812 152.039062 "/>
<path style="fill:none;stroke-width:1.2;stroke-linecap:butt;stroke-linejoin:miter;stroke:rgb(0%,0%,0%);stroke-opacity:1;stroke-miterlimit:10;" d="M 79.609375 147.960938 L 69.890625 152.289062 "/>
<path style="fill:none;stroke-width:1.2;stroke-linecap:butt;stroke-linejoin:miter;stroke:rgb(100%,0%,0%);stroke-opacity:1;stroke-miterlimit:10;" d="M 69.890625 152.289062 L 60.167969 156.613281 "/>
<path style="fill:none;stroke-width:1.2;stroke-linecap:butt;stroke-linejoin:miter;stroke:rgb(0%,0%,0%);stroke-opacity:1;stroke-miterlimit:10;" d="M 78.59375 145.675781 L 80.824219 124.515625 "/>
<path style=" stroke:none;fill-rule:nonzero;fill:rgb(100%,100%,100%);fill-opacity:1;" d="M 51.152344 148.824219 L 59.152344 148.824219 L 59.152344 159.824219 L 51.152344 159.824219 Z M 51.152344 148.824219 "/>
<g style="fill:rgb(100%,0%,0%);fill-opacity:1;">
  <use xlink:href="#glyph0-3" x="51.152344" y="157.487305"/>
</g>
<path style="fill:none;stroke-width:1.2;stroke-linecap:butt;stroke-linejoin:miter;stroke:rgb(0%,0%,0%);stroke-opacity:1;stroke-miterlimit:10;" d="M 80.824219 124.515625 L 100.261719 115.867188 "/>
<path style="fill:none;stroke-width:1.2;stroke-linecap:butt;stroke-linejoin:miter;stroke:rgb(0%,0%,0%);stroke-opacity:1;stroke-miterlimit:10;" d="M 80.730469 119.078125 L 96.285156 112.15625 "/>
<path style="fill:none;stroke-width:1.2;stroke-linecap:butt;stroke-linejoin:miter;stroke:rgb(0%,0%,0%);stroke-opacity:1;stroke-miterlimit:10;" d="M 63.613281 112.003906 L 80.824219 124.515625 "/>
<path style="fill:none;stroke-width:1.2;stroke-linecap:butt;stroke-linejoin:miter;stroke:rgb(0%,0%,0%);stroke-opacity:1;stroke-miterlimit:10;" d="M 100.261719 115.867188 L 102.492188 94.707031 "/>
<path style="fill:none;stroke-width:1.2;stroke-linecap:butt;stroke-linejoin:miter;stroke:rgb(0%,0%,0%);stroke-opacity:1;stroke-miterlimit:10;" d="M 102.492188 94.707031 L 85.28125 82.195312 "/>
<path style="fill:none;stroke-width:1.2;stroke-linecap:butt;stroke-linejoin:miter;stroke:rgb(0%,0%,0%);stroke-opacity:1;stroke-miterlimit:10;" d="M 97.828125 97.503906 L 84.058594 87.496094 "/>
<path style="fill:none;stroke-width:1.2;stroke-linecap:butt;stroke-linejoin:miter;stroke:rgb(0%,0%,0%);stroke-opacity:1;stroke-miterlimit:10;" d="M 85.28125 82.195312 L 65.84375 90.84375 "/>
<path style="fill:none;stroke-width:1.2;stroke-linecap:butt;stroke-linejoin:miter;stroke:rgb(0%,0%,0%);stroke-opacity:1;stroke-miterlimit:10;" d="M 65.84375 90.84375 L 63.613281 112.003906 "/>
<path style="fill:none;stroke-width:1.2;stroke-linecap:butt;stroke-linejoin:miter;stroke:rgb(0%,0%,0%);stroke-opacity:1;stroke-miterlimit:10;" d="M 70.597656 93.484375 L 68.8125 110.414062 "/>
<path style="fill:none;stroke-width:1.2;stroke-linecap:butt;stroke-linejoin:miter;stroke:rgb(0%,0%,0%);stroke-opacity:1;stroke-miterlimit:10;" d="M 155.015625 152.179688 L 157.953125 141.957031 "/>
<path style="fill:none;stroke-width:1.2;stroke-linecap:butt;stroke-linejoin:miter;stroke:rgb(100%,0%,0%);stroke-opacity:1;stroke-miterlimit:10;" d="M 157.953125 141.957031 L 160.886719 131.730469 "/>
<path style="fill:none;stroke-width:1.2;stroke-linecap:butt;stroke-linejoin:miter;stroke:rgb(0%,0%,0%);stroke-opacity:1;stroke-miterlimit:10;" d="M 150.203125 150.800781 L 153.140625 140.574219 "/>
<path style="fill:none;stroke-width:1.2;stroke-linecap:butt;stroke-linejoin:miter;stroke:rgb(100%,0%,0%);stroke-opacity:1;stroke-miterlimit:10;" d="M 153.140625 140.574219 L 156.074219 130.347656 "/>
<path style="fill:none;stroke-width:1.2;stroke-linecap:butt;stroke-linejoin:miter;stroke:rgb(0%,0%,0%);stroke-opacity:1;stroke-miterlimit:10;" d="M 152.609375 151.492188 L 159.996094 159.144531 "/>
<path style="fill:none;stroke-width:1.2;stroke-linecap:butt;stroke-linejoin:miter;stroke:rgb(0%,0%,100%);stroke-opacity:1;stroke-miterlimit:10;" d="M 159.996094 159.144531 L 167.386719 166.800781 "/>
<path style=" stroke:none;fill-rule:nonzero;fill:rgb(100%,100%,100%);fill-opacity:1;" d="M 154.480469 125.539062 L 162.480469 125.539062 L 162.480469 136.539062 L 154.480469 136.539062 Z M 154.480469 125.539062 "/>
<g style="fill:rgb(100%,0%,0%);fill-opacity:1;">
  <use xlink:href="#glyph0-3" x="154.480469" y="134.202148"/>
</g>
<path style="fill:none;stroke-width:1.2;stroke-linecap:butt;stroke-linejoin:miter;stroke:rgb(0%,0%,100%);stroke-opacity:1;stroke-miterlimit:10;" d="M 167.386719 166.800781 L 177.710938 164.230469 "/>
<path style="fill:none;stroke-width:1.2;stroke-linecap:butt;stroke-linejoin:miter;stroke:rgb(0%,0%,0%);stroke-opacity:1;stroke-miterlimit:10;" d="M 177.710938 164.230469 L 188.03125 161.660156 "/>
<path style=" stroke:none;fill-rule:nonzero;fill:rgb(100%,100%,100%);fill-opacity:1;" d="M 160.386719 161.300781 L 174.386719 161.300781 L 174.386719 172.300781 L 160.386719 172.300781 Z M 160.386719 161.300781 "/>
<g style="fill:rgb(0%,0%,100%);fill-opacity:1;">
  <use xlink:href="#glyph0-1" x="160.386719" y="169.963867"/>
  <use xlink:href="#glyph0-2" x="167.364258" y="169.963867"/>
</g>
<path style="fill:none;stroke-width:1.2;stroke-linecap:butt;stroke-linejoin:miter;stroke:rgb(0%,0%,0%);stroke-opacity:1;stroke-miterlimit:10;" d="M 188.03125 161.660156 L 202.808594 176.96875 "/>
<path style="fill:none;stroke-width:1.2;stroke-linecap:butt;stroke-linejoin:miter;stroke:rgb(0%,0%,0%);stroke-opacity:1;stroke-miterlimit:10;" d="M 193.113281 159.714844 L 204.933594 171.960938 "/>
<path style="fill:none;stroke-width:1.2;stroke-linecap:butt;stroke-linejoin:miter;stroke:rgb(0%,0%,0%);stroke-opacity:1;stroke-miterlimit:10;" d="M 193.902344 141.207031 L 188.03125 161.660156 "/>
<path style="fill:none;stroke-width:1.2;stroke-linecap:butt;stroke-linejoin:miter;stroke:rgb(0%,0%,0%);stroke-opacity:1;stroke-miterlimit:10;" d="M 202.808594 176.96875 L 223.457031 171.828125 "/>
<path style="fill:none;stroke-width:1.2;stroke-linecap:butt;stroke-linejoin:miter;stroke:rgb(0%,0%,0%);stroke-opacity:1;stroke-miterlimit:10;" d="M 223.457031 171.828125 L 238.230469 187.136719 "/>
<path style="fill:none;stroke-width:1.2;stroke-linecap:butt;stroke-linejoin:miter;stroke:rgb(0%,0%,0%);stroke-opacity:1;stroke-miterlimit:10;" d="M 228.535156 169.882812 L 240.355469 182.128906 "/>
<path style="fill:none;stroke-width:1.2;stroke-linecap:butt;stroke-linejoin:miter;stroke:rgb(0%,0%,0%);stroke-opacity:1;stroke-miterlimit:10;" d="M 229.328125 151.375 L 223.457031 171.828125 "/>
<path style="fill:none;stroke-width:1.2;stroke-linecap:butt;stroke-linejoin:miter;stroke:rgb(0%,0%,0%);stroke-opacity:1;stroke-miterlimit:10;" d="M 238.230469 187.136719 L 258.878906 181.996094 "/>
<path style="fill:none;stroke-width:1.2;stroke-linecap:butt;stroke-linejoin:miter;stroke:rgb(0%,0%,0%);stroke-opacity:1;stroke-miterlimit:10;" d="M 258.878906 181.996094 L 264.75 161.546875 "/>
<path style="fill:none;stroke-width:1.2;stroke-linecap:butt;stroke-linejoin:miter;stroke:rgb(0%,0%,0%);stroke-opacity:1;stroke-miterlimit:10;" d="M 254.652344 178.570312 L 259.351562 162.210938 "/>
<path style="fill:none;stroke-width:1.2;stroke-linecap:butt;stroke-linejoin:miter;stroke:rgb(0%,0%,0%);stroke-opacity:1;stroke-miterlimit:10;" d="M 264.75 161.546875 L 249.972656 146.234375 "/>
<path style="fill:none;stroke-width:1.2;stroke-linecap:butt;stroke-linejoin:miter;stroke:rgb(0%,0%,0%);stroke-opacity:1;stroke-miterlimit:10;" d="M 249.972656 146.234375 L 229.328125 151.375 "/>
<path style="fill:none;stroke-width:1.2;stroke-linecap:butt;stroke-linejoin:miter;stroke:rgb(0%,0%,0%);stroke-opacity:1;stroke-miterlimit:10;" d="M 249.117188 151.609375 L 232.601562 155.71875 "/>
<path style="fill:none;stroke-width:1.2;stroke-linecap:butt;stroke-linejoin:miter;stroke:rgb(0%,0%,0%);stroke-opacity:1;stroke-miterlimit:10;" d="M 229.328125 151.375 L 214.550781 136.066406 "/>
<path style="fill:none;stroke-width:1.2;stroke-linecap:butt;stroke-linejoin:miter;stroke:rgb(0%,0%,0%);stroke-opacity:1;stroke-miterlimit:10;" d="M 214.550781 136.066406 L 193.902344 141.207031 "/>
<path style="fill:none;stroke-width:1.2;stroke-linecap:butt;stroke-linejoin:miter;stroke:rgb(0%,0%,0%);stroke-opacity:1;stroke-miterlimit:10;" d="M 213.695312 141.4375 L 197.179688 145.550781 "/>
</g>
</svg>

<svg xmlns="http://www.w3.org/2000/svg" xmlns:xlink="http://www.w3.org/1999/xlink" width="300pt" height="300pt" viewBox="0 0 300 300"><defs><symbol overflow="visible"><path d="M.453 1.594v-7.938h4.5v7.938zm.5-.5h3.5v-6.938h-3.5zm0 0"/></symbol><symbol overflow="visible" id="a"><path d="M.89-6.563H2.08l2.906 5.485v-5.484h.86V0H4.656L1.75-5.484V0H.89zm0 0"/></symbol><symbol overflow="visible" id="b"><path d="M.89-6.563h.876v2.688H5v-2.688h.89V0H5v-3.125H1.766V0H.89zm0 0"/></symbol><symbol overflow="visible" id="c"><path d="M3.547-5.953c-.65 0-1.164.242-1.547.72-.375.48-.563 1.13-.563 1.952 0 .835.188 1.49.563 1.967.383.48.898.72 1.547.72.644 0 1.156-.24 1.53-.72.376-.476.564-1.132.564-1.968 0-.822-.187-1.474-.562-1.954-.375-.477-.887-.72-1.53-.72zm0-.734c.914 0 1.648.312 2.203.937.55.617.828 1.438.828 2.47 0 1.042-.277 1.87-.828 2.483-.555.617-1.29.922-2.203.922-.93 0-1.668-.305-2.22-.922C.774-1.41.5-2.237.5-3.28c0-1.033.273-1.853.828-2.47.55-.625 1.29-.938 2.22-.938zm0 0"/></symbol></defs><g><path fill="#fff" d="M0 0h300v300H0z"/><path d="M131.96 156.633l-12.073-17.918-5.403 5.215zm0 0"/><path d="M131.96 156.633l-5.866 20.45M131.96 156.633l20.65-5.14" stroke-width="1.2" stroke="#000" stroke-miterlimit="10" fill="none"/><path d="M126.094 177.082l1.496 21.555 7.285-1.813zm0 0"/><path d="M110.78 191.86l15.314-14.778M131.234 197.73l-20.453-5.87" stroke-width="1.2" stroke="#000" stroke-miterlimit="10" fill="none"/><path d="M110.78 191.86L98.075 209.33l6.75 3.297zm0 0"/><path d="M110.78 191.86l-17.21-12.512" stroke-width="1.2" stroke="#000" stroke-miterlimit="10" fill="none"/><path d="M93.57 179.348l-20.965 5.218 3.05 6.86zm0 0"/><path d="M93.57 179.348l1.118-10.578" stroke-width="1.2" stroke="#000" stroke-miterlimit="10" fill="none"/><path d="M94.688 168.77l1.113-10.583" stroke-width="1.2" stroke="#00f" stroke-miterlimit="10" fill="none"/><path d="M74.133 187.996l-17.21-12.512M69.465 190.793L55.7 180.785M71.902 209.156l2.23-21.16M56.922 175.484l-19.442 8.65M37.48 184.133l-2.23 21.16M42.234 186.773l-1.78 16.93M35.25 205.293l17.21 12.512M52.46 217.805l19.442-8.65M52.37 212.367l15.552-6.922" stroke-width="1.2" stroke="#000" stroke-miterlimit="10" fill="none"/><path d="M95.8 158.188l-8.605-6.258" stroke-width="1.2" stroke="#00f" stroke-miterlimit="10" fill="none"/><path d="M87.195 151.93l-8.6-6.254" stroke-width="1.2" stroke="#000" stroke-miterlimit="10" fill="none"/><path d="M88.8 152.688h14v11h-14zm0 0" fill="#fff"/><g fill="#00f"><use xlink:href="#a" x="88.801" y="161.351"/><use xlink:href="#b" x="95.778" y="161.351"/></g><path d="M77.574 143.387l-9.72 4.324" stroke-width="1.2" stroke="#000" stroke-miterlimit="10" fill="none"/><path d="M67.855 147.71l-9.722 4.33" stroke-width="1.2" stroke="#f00" stroke-miterlimit="10" fill="none"/><path d="M79.61 147.96l-9.72 4.33" stroke-width="1.2" stroke="#000" stroke-miterlimit="10" fill="none"/><path d="M69.89 152.29l-9.722 4.323" stroke-width="1.2" stroke="#f00" stroke-miterlimit="10" fill="none"/><path d="M78.594 145.676l2.23-21.16" stroke-width="1.2" stroke="#000" stroke-miterlimit="10" fill="none"/><path d="M51.152 148.824h8v11h-8zm0 0" fill="#fff"/><use xlink:href="#c" x="51.152" y="157.487" fill="#f00"/><path d="M80.824 124.516l19.438-8.65M80.73 119.078l15.555-6.922M63.613 112.004l17.21 12.512M100.262 115.867l2.23-21.16M102.492 94.707l-17.21-12.512M97.828 97.504l-13.77-10.008M85.28 82.195l-19.436 8.65M65.844 90.844l-2.23 21.16M70.598 93.484l-1.785 16.93M155.016 152.18l2.937-10.223" stroke-width="1.2" stroke="#000" stroke-miterlimit="10" fill="none"/><path d="M157.953 141.957l2.934-10.227" stroke-width="1.2" stroke="#f00" stroke-miterlimit="10" fill="none"/><path d="M150.203 150.8l2.938-10.226" stroke-width="1.2" stroke="#000" stroke-miterlimit="10" fill="none"/><path d="M153.14 140.574l2.934-10.226" stroke-width="1.2" stroke="#f00" stroke-miterlimit="10" fill="none"/><path d="M152.61 151.492l7.386 7.653" stroke-width="1.2" stroke="#000" stroke-miterlimit="10" fill="none"/><path d="M159.996 159.145l7.39 7.656" stroke-width="1.2" stroke="#00f" stroke-miterlimit="10" fill="none"/><path d="M154.48 125.54h8v11h-8zm0 0" fill="#fff"/><use xlink:href="#c" x="154.48" y="134.202" fill="#f00"/><path d="M167.387 166.8l10.324-2.57" stroke-width="1.2" stroke="#00f" stroke-miterlimit="10" fill="none"/><path d="M177.71 164.23l10.32-2.57" stroke-width="1.2" stroke="#000" stroke-miterlimit="10" fill="none"/><path d="M160.387 161.3h14v11h-14zm0 0" fill="#fff"/><g fill="#00f"><use xlink:href="#a" x="160.387" y="169.964"/><use xlink:href="#b" x="167.364" y="169.964"/></g><path d="M188.03 161.66l14.78 15.31M193.113 159.715l11.82 12.246M193.902 141.207l-5.87 20.453M202.81 176.97l20.647-5.142M223.457 171.828l14.773 15.31M228.535 169.883l11.82 12.246M229.328 151.375l-5.87 20.453M238.23 187.137l20.65-5.14M258.88 181.996l5.87-20.45M254.652 178.57l4.7-16.36M264.75 161.547l-14.777-15.313M249.973 146.234l-20.645 5.14M249.117 151.61l-16.515 4.11M229.328 151.375l-14.777-15.31M214.55 136.066l-20.648 5.14M213.695 141.438l-16.515 4.113" stroke-width="1.2" stroke="#000" stroke-miterlimit="10" fill="none"/></g></svg>
